X: 29214
T: New Fiddle, The
R: jig
M: 6/8
K: Emixolydian
|:a|g2e e^de|BGE EGB|dcB AFD|A,DF Adf|
=g2e e^de|BGE EGB|dcB A=GF|E3 E2:|
a|gbe bge|Bba gfe|dcd AFD|A,DF Adf|
=gbe b^ge|Bba gfe|dcB A=GF|E3 E2a|
gbe bge|Bba gfe|dcd AFD|A,DF Adf|
=gbg faf|eba gfe|dcB A=GF|E3 E2||

